X:1
T:Lithuania, 11.11.11.11 D
T:Lithuania, 11.11.11.11 D
T:Eli G. Christy, 1894
T:Public Domain Courtesy of the Cyber Hymnal™
C:Eli G. Christy, 1894
Z:Public Domain
Z:Courtesy of the Cyber Hymnal™
%%score ( 1 2 ) ( 3 4 )
L:1/8
Q:1/4=75
M:6/8
K:F
V:1 treble 
V:2 treble 
V:3 bass 
V:4 bass 
V:1
 ([Fc]/[Fc]/) | [Fc]>[FB][FA] [CG]<[CF][EG] | [FA][CF]>[B,D] [A,C]2 [A,C] | %3
 [CF]>[CE][CF] [Fd]<[Fc][FA] | F[EB][FA] [EG]2 ([Ec]/[Ec]/) | %5
 [Fc]>[FB][FA] [CG]<[CF][EG][FA][DF]>[B,D] [A,C]2 [A,C] | [CF]>[CE][CF] [Fd]<[Fc][FA] | %7
 [DG]D[CE] [CF]2 [FA] | [EG]>[FA][GB] [GB][FA][EG] | [FA]F[Fd] [Fc]2 [FA] | %10
 [EG]>[FA][GB] [GB][FA][EG] | [FA]F[Fd] [Fc]2 [Fc] | %12
 [Fc]>[FB][FA] [CG]<[CF][EG][FA][DF]>[B,D] [A,C]2 [A,C] | [CF]>[CE][CF] [Fd]<[Fc][FA] | %14
 [DG]D[CE] [CF]2 |] %15
V:2
 x | x6 | x6 | x6 | F x5 | x12 | x6 | x D x4 | x6 | x F x4 | x6 | x F x4 | x12 | x6 | x D x3 |] %15
V:3
 ([F,A,]/[F,A,]/) | [F,A,]>[F,D][F,C] [F,B,]<[F,A,][C,C] | [F,C][F,A,]>F, F,2 F, | %3
 [F,A,]>[F,G,][F,A,] [F,B,]<[F,A,][F,C] | [A,C][G,C][F,C] [C,C]2 ([C,B,]/[C,B,]/) | %5
 [F,A,]>[F,D][F,C] [F,B,]<[F,A,][C,C][F,C][F,A,]>F, F,2 F, | %6
 [F,A,]>[F,G,][F,A,] [F,B,]<[F,A,][F,C] | [B,,B,][B,,B,][C,B,] [F,A,]2 [F,C] | %8
 [C,C]>[C,C][C,C] [C,C][C,C][C,C] | [F,C][F,A,][F,B,] [F,A,]2 [F,C] | %10
 [C,C]>[C,C][C,C] [C,C][C,C][C,C] | [F,C][F,A,][F,B,] [F,A,]2 [F,A,] | %12
 [F,A,]>[F,D][F,C] [F,B,]<[F,A,][C,C][F,C][F,A,]>F, F,2 F, | %13
 [F,A,]>[F,G,][F,A,] [F,B,]<[F,A,][F,C] | [B,,B,][B,,B,][C,B,] [F,A,]2 |] %15
V:4
 x | x6 | x5/2 F,/ F,2 F, | x6 | x6 | x17/2 F,/ F,2 F, | x6 | x6 | x6 | x6 | x6 | x6 | %12
 x17/2 F,/ F,2 F, | x6 | x5 |] %15

